desafios/travelgram/assets/icons/Image.svg

<svg fill="none" height="24" viewBox="0 0 24 24" width="24" xmlns="http://www.w3.org/2000/svg"><g fill="#ef5f4c"><path d="m21 5.25v11.4431l-3.7238-3.7237c-.1406-.1406-.3313-.2195-.5301-.2195s-.3895.0789-.5302.2195l-2.4056 2.4056-4.65467-4.6556c-.06966-.0698-.15238-.1251-.24342-.1628-.09105-.0378-.18865-.0572-.28721-.0572s-.19616.0194-.28721.0572c-.09104.0377-.17376.093-.24342.1628l-5.09437 5.0953v-10.5647c0-.19891.07902-.38968.21967-.53033s.33142-.21967.53033-.21967h16.5c.1989 0 .3897.07902.5303.21967.1407.14065.2197.33142.2197.53033z" opacity=".2"/><path d="m20.25 3.75h-16.5c-.39782 0-.77936.15804-1.06066.43934s-.43934.66284-.43934 1.06066v13.5c0 .3978.15804.7794.43934 1.0607s.66284.4393 1.06066.4393h16.5c.3978 0 .7794-.158 1.0607-.4393s.4393-.6629.4393-1.0607v-13.5c0-.39782-.158-.77936-.4393-1.06066s-.6629-.43934-1.0607-.43934zm0 1.5v9.6328l-2.4441-2.4431c-.1393-.1393-.3046-.2499-.4866-.3253-.1821-.0754-.3771-.1142-.5741-.1142-.1971 0-.3921.0388-.5741.1142-.1821.0754-.3474.186-.4867.3253l-1.875 1.875-4.12502-4.125c-.28128-.2811-.66266-.439-1.06032-.439-.39765 0-.77903.1579-1.06031.439l-3.81375 3.8137v-8.7534zm-16.5 10.875 4.875-4.875 7.5 7.5h-12.375zm16.5 2.625h-2.0034l-3.375-3.375 1.875-1.875 3.5034 3.5044zm-6.75-9.375c0-.2225.066-.44001.1896-.62502.1236-.185.2993-.3292.5049-.41434.2055-.08515.4317-.10743.65-.06402.2182.0434.4187.15055.576.30788.1573.15734.2645.35779.3079.57602s.0211.44443-.064.65c-.0852.20558-.2294.38128-.4144.50488s-.4025.1896-.625.1896c-.2984 0-.5845-.1185-.7955-.3295-.211-.21098-.3295-.49713-.3295-.7955z"/></g></svg>

<svg width="24" height="24" viewBox="0 0 24 24" fill="none" xmlns="http://www.w3.org/2000/svg">
<path opacity="0.2" d="M21 5.25V16.6931L17.2762 12.9694C17.1356 12.8288 16.9449 12.7499 16.7461 12.7499C16.5473 12.7499 16.3566 12.8288 16.2159 12.9694L13.8103 15.375L9.15563 10.7194C9.08597 10.6496 9.00325 10.5943 8.91221 10.5566C8.82116 10.5188 8.72356 10.4994 8.625 10.4994C8.52644 10.4994 8.42884 10.5188 8.33779 10.5566C8.24675 10.5943 8.16403 10.6496 8.09437 10.7194L3 15.8147V5.25C3 5.05109 3.07902 4.86032 3.21967 4.71967C3.36032 4.57902 3.55109 4.5 3.75 4.5H20.25C20.4489 4.5 20.6397 4.57902 20.7803 4.71967C20.921 4.86032 21 5.05109 21 5.25Z" fill="#EF5F4C"/>
<path d="M20.25 3.75H3.75C3.35218 3.75 2.97064 3.90804 2.68934 4.18934C2.40804 4.47064 2.25 4.85218 2.25 5.25V18.75C2.25 19.1478 2.40804 19.5294 2.68934 19.8107C2.97064 20.092 3.35218 20.25 3.75 20.25H20.25C20.6478 20.25 21.0294 20.092 21.3107 19.8107C21.592 19.5294 21.75 19.1478 21.75 18.75V5.25C21.75 4.85218 21.592 4.47064 21.3107 4.18934C21.0294 3.90804 20.6478 3.75 20.25 3.75ZM20.25 5.25V14.8828L17.8059 12.4397C17.6666 12.3004 17.5013 12.1898 17.3193 12.1144C17.1372 12.039 16.9422 12.0002 16.7452 12.0002C16.5481 12.0002 16.3531 12.039 16.1711 12.1144C15.989 12.1898 15.8237 12.3004 15.6844 12.4397L13.8094 14.3147L9.68438 10.1897C9.4031 9.9086 9.02172 9.7507 8.62406 9.7507C8.22641 9.7507 7.84503 9.9086 7.56375 10.1897L3.75 14.0034V5.25H20.25ZM3.75 16.125L8.625 11.25L16.125 18.75H3.75V16.125ZM20.25 18.75H18.2466L14.8716 15.375L16.7466 13.5L20.25 17.0044V18.75ZM13.5 9.375C13.5 9.1525 13.566 8.93499 13.6896 8.74998C13.8132 8.56498 13.9889 8.42078 14.1945 8.33564C14.4 8.25049 14.6262 8.22821 14.8445 8.27162C15.0627 8.31502 15.2632 8.42217 15.4205 8.5795C15.5778 8.73684 15.685 8.93729 15.7284 9.15552C15.7718 9.37375 15.7495 9.59995 15.6644 9.80552C15.5792 10.0111 15.435 10.1868 15.25 10.3104C15.065 10.434 14.8475 10.5 14.625 10.5C14.3266 10.5 14.0405 10.3815 13.8295 10.1705C13.6185 9.95952 13.5 9.67337 13.5 9.375Z" fill="#EF5F4C"/>
</svg>
